src/assets/svg-icons/github-light-icon.svg

<svg width="38" height="39" viewBox="0 0 38 39" fill="none" xmlns="http://www.w3.org/2000/svg">
<g clip-path="url(#clip0_2905_12996)">
<path d="M19 1.77637C8.5025 1.77637 0 10.1364 0 20.447C0 28.6978 5.4435 35.6945 12.9913 38.1614C13.9412 38.3371 14.2896 37.7592 14.2896 37.2636C14.2896 36.8203 14.2738 35.6455 14.2658 34.089C8.98067 35.2148 7.866 31.5842 7.866 31.5842C7.0015 29.4293 5.75225 28.8529 5.75225 28.8529C4.03117 27.6955 5.88525 27.7193 5.88525 27.7193C7.79317 27.8491 8.79542 29.643 8.79542 29.643C10.4896 32.4978 13.243 31.6729 14.3292 31.1963C14.5002 29.9882 14.9894 29.1664 15.5325 28.6994C11.3129 28.2323 6.878 26.6268 6.878 19.4733C6.878 17.4355 7.61425 15.7699 8.83342 14.4636C8.61967 13.9918 7.97842 12.0934 8.99967 9.52203C8.99967 9.52203 10.5909 9.0217 14.2247 11.4363C15.7447 11.0215 17.3597 10.8156 18.9747 10.8061C20.5897 10.8156 22.2047 11.0215 23.7247 11.4363C27.3347 9.0217 28.9259 9.52203 28.9259 9.52203C29.9472 12.0934 29.3059 13.9918 29.1159 14.4636C30.3272 15.7699 31.0634 17.4355 31.0634 19.4733C31.0634 26.6458 26.6222 28.2244 22.3947 28.6835C23.0597 29.244 23.6772 30.3888 23.6772 32.1384C23.6772 34.6369 23.6534 36.6445 23.6534 37.2509C23.6534 37.7402 23.9859 38.3244 24.9597 38.1376C32.5613 35.6866 38 28.6851 38 20.447C38 10.1364 29.4928 1.77637 19 1.77637Z" fill="#F5F5F5"/>
</g>
<defs>
<clipPath id="clip0_2905_12996">
<rect width="38" height="38" fill="white" transform="translate(0 0.984375)"/>
</clipPath>
</defs>
</svg>

<svg xmlns="http://www.w3.org/2000/svg" width="38" height="39" fill="none" viewBox="0 0 38 39"><g clip-path="url(#a)"><path fill="#F5F5F5" d="M19 1.776c-10.498 0-19 8.36-19 18.671 0 8.25 5.444 15.247 12.991 17.714.95.176 1.299-.402 1.299-.897 0-.444-.016-1.619-.024-3.175-5.285 1.126-6.4-2.505-6.4-2.505-.864-2.155-2.114-2.731-2.114-2.731-1.72-1.158.133-1.134.133-1.134 1.908.13 2.91 1.924 2.91 1.924 1.695 2.855 4.448 2.03 5.534 1.553.171-1.208.66-2.03 1.204-2.497-4.22-.467-8.655-2.072-8.655-9.226 0-2.037.736-3.703 1.955-5.01-.213-.471-.855-2.37.167-4.941 0 0 1.59-.5 5.225 1.914a18.55 18.55 0 0 1 4.75-.63c1.615.01 3.23.216 4.75.63 3.61-2.414 5.2-1.914 5.2-1.914 1.022 2.571.38 4.47.19 4.942 1.212 1.306 1.948 2.972 1.948 5.01 0 7.172-4.44 8.75-8.668 9.21.665.56 1.282 1.705 1.282 3.454 0 2.499-.024 4.507-.024 5.113 0 .49.333 1.073 1.307.887C32.56 35.687 38 28.685 38 20.447c0-10.31-8.507-18.67-19-18.67Z"/></g><defs><clipPath id="a"><path fill="#fff" d="M0 .984h38v38H0z"/></clipPath></defs></svg>
